X:1
T:Il giusto iddio
T:Eliseo Ghibel
T:Source : Primo libro de Madrigali a tre voci---Venetia---A.Gardano---1552. (First publication : Venetia---G.Scotto---1551) Editor : André Vierendeels (11/11/17). Notes : Original clefs : C4, C4, F4 Editorial accidentals above the staff
T:Il giusto iddio
T:©
T:©
T:©
T:©
T:©
T:©
C:Eliseo Ghibel
Z:©
%%score [ 1 2 3 ]
L:1/8
Q:1/4=120
M:4/4
K:F
V:1 treble-8 nm="Tenor 1" snm="T 1"
V:2 treble-8 nm="Tenor 2" snm="T 2"
V:3 bass nm="Bass" snm="B"
V:1
 B8 | A4 B4 | c4 z2 G2 | B3 c d3 e | f4 c4 | z2 G2 B2 c2 | B2 B2 A2 d2 | d2 c2 d2 A2 | %8
w: Il|giu- sto'id-|dio quan-|do pec- ca- ti|no- stri,|han- no di|re- mis- sion pas-|sa- to'il se- gno,|
 z2 e2 f2 f2 | e2 e2 f2 d2 | d2 c2 dc BA/G/ | A4 G4 | A4 B4 | c4 d4 | d4 d4 | B2 F4 G2 | D4 d4 | %17
w: han- no di|re- mis- sion pas-|sa- to'il se- * * * *|* gno,|ac- cio|de la|iu- sti-|tia sua di-|mo- stri|
 z2 c2 B4- | B4 B4 | _e8- | e4 c4 | d4 z2 A2- | AA A2 B4 | G4 z2 c2- | cc c2 d4- | d4 c4 | %26
w: u- gual|_ a|la|_ pie-|ta, spes-|* so da re-|gno, spes-|* so da re-|* gno|
 z2 c2 _e2 e2 | B3 c d3 e | f4 z2 c2 | _e2 e2 B3 c | d3 e f4 | z2 f6 | d4 c4- | c4 B2 A2 | %34
w: a ti- ran-|ni'a- tro- cis- si-|mi, a|ti- ran- ni'a- tro-|cis- si- mi,|et|a mo-||
 B4 z2 A2- | A2 c4 G2- | G2 B4 A2- | A2 G4 F2 | G2 c6 | A4 B2 d2 | d3 c B4 | A4 G4- | G2 FE F4 | %43
w: stri, et|_ da lor|_ for- za'et|_ di mal|far l'in-|ge- * gno,|et di mal|far l'in-|* * * ge-|
 G4 B4 | A4 F4 | G4 A4 | B4 G4 | c6 e2 | f4 e4- | e4 z2 c2 | c3 B A4 | z2 f2 f3 e | d8 | %53
w: gno, per|que- sto|Ma- ri'et|sil- la|po- se'al|mon- do,|_ Ne-|ron cru- del,|Ne- ron cru-|del|
 z2 c2 c2 d2 | c2 G2 A4 | c8 | z2 c2 c3 B | A4 z2 f2 | f3 e d4- | d4 z2 c2- | c2 c4 d2 | c2 G2 A4 | %62
w: et Ca- io|fu- ri- bon-|do,|Ne- ron cru-|del, Ne-|ron cru- del|_ et|_ Ca- io|fu- ri- bon-|
 G8- | G8- | G8- | G8- | G8 |] %67
w: do.|_||||
V:2
 G8 | F4 F4 | G2 G2 B3 c | d2 G2 z2 F2 | F3 G A3 B | c4 G4 | z2 d2 f2 f2 | e2 e2 f2 d2 | %8
w: Il|giu- sto'id-|dio quan- do pec-|ca- ti, quand'|i pec- ca- ti|no- stri,|han- no di|re- mis- sion pas-|
 d2 c2 d2 A2 | z2 G2 B2 B2 | A2 A2 B2 G2 | G2 F2 G2 D2- | D2 F4 G2- | G2 A4 B2- | B2 A2 G2 G2 | %15
w: sa- to'il se- gno,|han- no di|re- mis- sion pas-|sa- to'il se- gno,|_ ac- cio|_ de la|_ iu- sti- tia|
 d2 c3 B BA/G/ | A2 B3 A G2- | G2 F2 G4- | G2 d2 d4 | c2 G4 B2- | B2 G4 G2 | A4 z2 F2- | FF F2 G4 | %23
w: sua di- * mo- * *||* * stri|_ u- gual|a la, a|_ la pie-|ta, spes-|* so da re-|
 E4 z2 G2- | GG G2 B4- | B4 G4- | G8 | z2 G2 B2 B2 | F3 G A3 B | c4 z2 G2 | B2 B2 F3 G | %31
w: gno, spes-|* so da re-|* gno|_|a ti- ran-|ni'a- tro- cis- si-|mi, a|ti- ran- ni'a mo-|
 A3 B c2 A2- | A2 B2 G4 | G8- | G4 F4 | A4 E4 | G4 F4 | z2 c2 d2 B2- | B2 G4 A2- | A2 F4 B2- | %40
w: * * stri et|_ a mo-|stri|_ et|da lor|for- za,|et da lor|_ for- za'et|_ di mal|
 B2 A4 G2- | G2 F2 G4 | z4 A4 | B4 G4 | F4 A2 D2- |"^-natural" D2 E4 F2- |"^-natural" F2 G4 E2- | %47
w: _ far l'in-|* ge- gno,|per|que- sto|Ma- rio'et sil-|* la po-|* se al|
 E2 A3 B c2- |"^-natural" c2 B2 c4 | z2 c2 c3 B | A4 z2 f2 | f3 e d4 | z2 B2 B3 A | G2 G2 A2 B2 | %54
w: _ mon- * *|* * do,|Ne- ron cru-|del, Ne-|ron cru- del|Ne- ron cru-|del et Ca- io|
 G2 G4 F2 | G4 z2 c2 | c3 B A4 | z2 f2 f3 e | d4 z2 B2 | B3 A G2 G2- | G2 A4 B2 |"^#" A2 G4 F2 | %62
w: fu- ri- bon-|do, Ne-|ron cru- del,|Ne- ron cru-|del, Ne-|ron crdel et Ca-|* io fu-|ri- bon- *|
 G4 z2 _E2- | E2 C4 D2- |"^b" D2 E4 D2 |"^b" E8 | D8 |] %67
w: do, et|_ Ca- io|_ fu- ri-|bon-|do.|
V:3
 G,,8 | D,4 D,4 | C,4 z4 | z2 G,,2 B,,3 C, | D,3 E, F,4 | C,4 z2 E,2 | G,2 G,2 F,2 D,2 | %7
w: Il|giu- sto'id-|dio|quan- do pec-|ca- ti no-|stri, han-|no di re- mis-|
 E,2 E,2 D,2 D,2 | A,4 D,2 D,2 | C,2 C,2 B,,2 B,,2 | F,2 F,2 B,,2 E,2 |"^b" C,2 D,2 G,,4 | %12
w: sion pas- sa- to'il|se- gno, han-|no di re- mis-|sion pas- sa- to'il|se- * gno,|
 z2 D,4 _E,2- | E,2 F,4 G,2- | G,2 F,2 B,2 B,2 | G,2 A,3 G, G,2- | G,2 F,2 G,2 G,,2 | A,,4 G,,4 | %18
w: ac- cio|_ de la|_ iu- sti- tia|sua di- * mo-|* * stri, di-|mo- stri,|
 z2 G,2 G,4 | C,4 _E,4- | E,4 _E,4 | D,4 z2 D,2- |"^-natural" D,D, D,2 G,,4 | C,4 z2 C,2- | %24
w: u- gual|a la|_ pie-|ta, spes-|* so da re-|gno, spes-|
 C,C, C,2 B,,4- | B,,4 C,4- | C,4 z2 C,2 | _E,2 E,2 B,,3 C, |"^-natural" D,3 E, F,4 | %29
w: * so da re-|* gno|_ a|ti- ran- ni'a- tro-|cis- si- mi,|
 z2 C,2 _E,2 E,2 | B,,3 C, D,3 E, | F,4 z2 D,2- | D,2 B,,2 C,4 | G,,8- | G,,4 z2 D,2 | F,4 C,4 | %36
w: a ti- ran-|ni'a- tro- cis- si-|mi et|_ a mo-|stri,|_ et|da lor|
 _E,4 D,4 | C,4 B,,4 |"^b" E,4 C,4 | D,4 B,,4- |"^b" B,,2 D,2 D,2 E,2 |"^b" C,2 D,2 E,4 | D,8 | %43
w: for- za,|et da|lor for-|za'et di|_ mal far l'in-|ge- * gno,|_|
 z4 G,,4 | D,6 B,,2- | B,,2 C,4 D,2- | D,2 _E,4 C,2- | C,2 F,4 E,2 | D,4 C,4- | C,8 | %50
w: per|que- sto|_ Ma- rio'et|_ sil- la|_ po- se'al|mon- do,|_|
 z2 F,2 F,3 E, | D,4 z2 B,2 | B,3 A, G,4 | z2 C,2 F,2 B,,2 |"^b" C,2 E,2 D,4 | C,8- | C,4 z2 F,2 | %57
w: Ne- ron cru-|del, Ne-|ron cru- del|et Ca- io|fu- ri- bo,-|do,|_ Ne-|
 F,3 E, D,4 | z2 B,2 B,3 A, | G,4 z2 C,2- | C,2 F,4 B,,2 |"^b" C,2 E,2 D,4 | G,,4 z2 C,2- | %63
w: ron cru- del,|Ne- ron cru-|del et|_ Ca- io|fu- ri- bon-|do, et|
 C,2 _E,4 B,,2- | B,,2 C,4 B,,2 | C,8 | G,,8 |] %67
w: _ Ca- io|_ fu- ri-|bon-|do.|

